assets/img/icon_month.svg

<svg width="43" height="43" viewBox="0 0 43 43" version="1.1" xmlns="http://www.w3.org/2000/svg" xmlns:xlink="http://www.w3.org/1999/xlink">
<title>icon_month</title>
<desc>Created using Figma</desc>
<g id="Canvas" transform="translate(-4788 -1162)">
<g id="icon_month">
<g id="Ellipse">
<use xlink:href="#path0_fill" transform="translate(4788 1162)" fill="#FFFFFF"/>
</g>
<g id="002-industry">
<g id="Group">
<g id="Group">
<g id="Group">
<g id="Vector">
<use xlink:href="#path1_fill" transform="translate(4796 1175.22)" fill="#8064FF"/>
</g>
<g id="Vector">
<use xlink:href="#path2_fill" transform="translate(4800.34 1170)" fill="#8064FF"/>
</g>
<g id="Vector">
<use xlink:href="#path3_fill" transform="translate(4805.12 1189.14)" fill="#8064FF"/>
</g>
<g id="Vector">
<use xlink:href="#path4_fill" transform="translate(4807.29 1189.14)" fill="#8064FF"/>
</g>
<g id="Vector">
<use xlink:href="#path5_fill" transform="translate(4811.2 1187.83)" fill="#8064FF"/>
</g>
<g id="Vector">
<use xlink:href="#path6_fill" transform="translate(4817.29 1187.83)" fill="#8064FF"/>
</g>
</g>
</g>
</g>
</g>
</g>
</g>
<defs>
<path id="path0_fill" d="M 43 21.5C 43 33.3741 33.3741 43 21.5 43C 9.62588 43 0 33.3741 0 21.5C 0 9.62588 9.62588 0 21.5 0C 33.3741 0 43 9.62588 43 21.5Z"/>
<path id="path1_fill" d="M 25.4588 9.16688L 19.9826 11.5162L 19.9826 9.5666C 19.9826 9.25443 19.6638 9.04391 19.3771 9.16693L 13.3774 11.7408L 12.1634 11.7408L 12.1634 8.42599C 12.1634 7.8549 11.7013 7.39235 11.1308 7.39235L 9.72071 7.39235C 9.15019 7.39235 8.68811 7.8549 8.68811 8.42599L 8.68811 11.7408L 7.3849 11.7408L 6.91951 11.7408L 6.08052 0.402725C 6.06372 0.175654 5.87475 3.73231e-08 5.6473 3.73231e-08L 3.04088 3.73231e-08C 2.81342 3.73231e-08 2.62446 0.175654 2.60766 0.402725L 1.76867 11.7408L 1.30328 11.7408C 1.08193 11.7408 0.895972 11.9074 0.871537 12.1277L 0.00271151 19.9549C -0.0258981 20.2125 0.17554 20.4378 0.434452 20.4378L 3.04001 20.4378C 3.04032 20.4378 3.04057 20.4378 3.04088 20.4378L 5.6473 20.4378C 5.64761 20.4378 5.64786 20.4378 5.64817 20.4378L 8.25373 20.4378L 13.4666 20.4378L 15.6377 20.4378C 15.6381 20.4378 15.6383 20.4378 15.6386 20.4378L 17.3762 20.4378C 17.3765 20.4378 17.3768 20.4378 17.3771 20.4378L 19.5483 20.4378L 21.7194 20.4378C 21.7197 20.4378 21.72 20.4378 21.7203 20.4378L 23.4579 20.4378C 23.4582 20.4378 23.4584 20.4378 23.4588 20.4378L 25.6299 20.4378C 25.8698 20.4378 26.0643 20.2431 26.0643 20.003L 26.0643 9.56665C 26.0643 9.25443 25.7454 9.04392 25.4588 9.16688ZM 9.55694 8.42599C 9.55694 8.33524 9.63004 8.26206 9.72071 8.26206L 11.1308 8.26206C 11.2214 8.26206 11.2945 8.33524 11.2945 8.42599L 11.2945 11.7408L 9.55694 11.7408L 9.55694 8.42599ZM 9.12255 12.6105L 11.729 12.6105L 13.0322 12.6105L 13.0322 19.568L 8.64255 19.568L 7.8703 12.6105L 9.12255 12.6105ZM 3.44431 0.869658L 5.24392 0.869658L 6.04834 11.7408L 2.63983 11.7408L 3.44431 0.869658ZM 1.6921 12.6105L 2.1721 12.6105L 6.51613 12.6105L 6.99613 12.6105L 7.33964 15.7051L 7.76843 19.568L 6.08174 19.568L 6.08174 16.5242C 6.08174 16.284 5.88728 16.0893 5.64735 16.0893L 3.04093 16.0893C 2.801 16.0893 2.60654 16.284 2.60654 16.5242L 2.60654 19.568L 0.919796 19.568L 1.6921 12.6105ZM 3.47531 19.568L 3.47531 16.959L 5.21291 16.959L 5.21291 19.568L 3.47531 19.568ZM 13.901 12.4624L 19.1139 10.2261L 19.1139 12.1757L 19.1139 19.5681L 17.8107 19.5681L 17.8107 16.959C 17.8107 16.7189 17.6162 16.5242 17.3763 16.5242L 15.6387 16.5242C 15.3987 16.5242 15.2043 16.7189 15.2043 16.959L 15.2043 19.5681L 13.9011 19.5681L 13.9011 12.4624L 13.901 12.4624ZM 16.073 19.568L 16.073 17.3938L 16.9418 17.3938L 16.9418 19.568L 16.073 19.568ZM 23.0235 19.568L 22.1547 19.568L 22.1547 17.3938L 23.0235 17.3938L 23.0235 19.568ZM 25.1955 19.568L 23.8923 19.568L 23.8923 16.959C 23.8923 16.7188 23.6978 16.5242 23.4579 16.5242L 21.7203 16.5242C 21.4804 16.5242 21.2859 16.7189 21.2859 16.959L 21.2859 19.568L 19.9827 19.568L 19.9827 12.4624L 25.1955 10.226L 25.1955 19.568L 25.1955 19.568Z"/>
<path id="path2_fill" d="M 0.592925 4.3228C 0.6224 4.31128 0.681808 4.28947 0.766008 4.26078C 0.908496 4.21222 1.06585 4.1635 1.23282 4.1181C 1.57726 4.02439 1.91492 3.95753 2.2252 3.92909C 2.99516 3.85852 3.40527 4.02102 3.48371 4.43374C 3.49115 4.51221 3.52139 4.69561 3.57611 4.92793C 3.66698 5.31359 3.79628 5.69975 3.97257 6.064C 4.49859 7.15115 5.33423 7.83124 6.51694 7.83124C 6.97454 7.84383 7.4355 7.82793 7.88175 7.76398C 8.47817 7.67847 8.95196 7.52391 9.24157 7.26C 9.89063 7.90972 10.5227 8.31902 11.1275 8.53549C 11.5473 8.68572 11.9013 8.72689 12.1688 8.70319C 13.0444 8.6928 13.8519 8.32936 14.5965 7.73682C 14.8353 7.54679 15.052 7.34479 15.2445 7.14162C 15.9745 7.71368 16.7337 7.88556 17.3625 7.83506C 17.5144 7.83109 17.6224 7.82976 17.7271 7.82727C 20.9766 7.75333 22.6405 3.86815 20.3902 1.5345C 20.3388 1.48115 20.2992 1.44293 20.2742 1.42041C 19.9948 1.16826 19.549 1.3668 19.549 1.74343C 19.549 2.88164 19.2824 3.50507 18.8743 3.77632C 18.6826 3.90372 18.4807 3.93888 18.3222 3.92395C 18.3162 3.92339 18.2458 3.91768 18.2458 3.91768C 17.432 3.91768 16.5979 3.17129 15.8968 2.07288C 15.4857 1.42815 14.9927 0.898744 14.4164 0.513089C 13.8127 0.109345 13.3384 -0.0263575 13.0075 0.00411573C 11.9447 0.00987404 11.0757 0.37754 10.3982 0.984558C 10.3051 1.06803 10.2197 1.15165 10.142 1.2342C 9.94001 0.953116 9.63971 0.746632 9.27161 0.612764C 8.90034 0.477775 8.53422 0.43548 8.25342 0.438843C 7.24959 0.438894 6.41716 0.614599 5.74871 0.910974C 5.44271 1.04663 5.21276 1.18666 5.05414 1.30855L 4.34485 1.30855C 2.83883 1.30855 1.70035 1.75821 0.896431 2.51342C 0.403908 2.97607 0.133848 3.4454 0.0228711 3.78091C -0.0927381 4.13023 0.250374 4.45636 0.592925 4.3228ZM 4.34485 2.17821L 5.21368 2.17821C 5.32771 2.17821 5.43721 2.13332 5.51846 2.05321C 5.59268 1.98003 5.78251 1.84713 6.10052 1.70613C 6.658 1.45893 7.3706 1.30855 8.25449 1.30855C 8.44926 1.30621 8.72024 1.3375 8.97497 1.43014C 9.3608 1.57043 9.5577 1.79449 9.5577 2.17821C 9.5577 2.64 10.1819 2.78339 10.3831 2.36783C 10.3999 2.33302 10.4433 2.2574 10.5146 2.15472C 10.6378 1.97743 10.7918 1.79903 10.9776 1.63255C 11.508 1.15736 12.1832 0.873672 13.033 0.873672L 13.1122 0.866385C 13.1085 0.868118 13.1676 0.873774 13.2668 0.902107C 13.4478 0.95383 13.6701 1.05982 13.9337 1.23614C 14.4034 1.55045 14.8147 1.99211 15.1646 2.54088C 16.0072 3.86101 17.0199 4.77195 18.2155 4.78713C 18.5807 4.82173 18.9754 4.75304 19.3549 4.5008C 19.8191 4.19224 20.1459 3.67293 20.3059 2.92455C 21.1128 4.67982 19.8665 6.90859 17.7068 6.95776C 17.6004 6.96031 17.4905 6.96159 17.377 6.96159L 17.3126 6.96637C 17.1467 6.97988 16.9497 6.96872 16.7218 6.91516C 16.3799 6.83485 16.042 6.67372 15.7224 6.41047C 15.6509 6.35161 15.5807 6.28791 15.5121 6.21922C 15.3264 6.03332 15.0196 6.05361 14.86 6.26238C 14.8264 6.30626 14.7558 6.39085 14.6522 6.5024C 14.4769 6.6911 14.2766 6.8802 14.0557 7.05601C 13.4427 7.54389 12.799 7.83124 12.1641 7.83124L 12.0909 7.83746C 11.9463 7.84979 11.718 7.82324 11.4199 7.71654C 10.939 7.5444 10.4159 7.20573 9.86482 6.65405L 9.43044 6.21922L 8.56161 5.34951C 8.39194 5.17972 8.11694 5.17972 7.94727 5.34951C 7.77765 5.51936 7.77765 5.79464 7.94727 5.96448L 8.61679 6.63469C 8.49167 6.73421 8.20338 6.83923 7.75846 6.90303C 7.36881 6.95888 6.95245 6.97325 6.59946 6.96408C 6.56815 6.96327 6.54565 6.96245 6.53715 6.96204C 5.71577 6.96159 5.14887 6.50021 4.7544 5.68492C 4.60845 5.3833 4.49885 5.05609 4.42167 4.72833C 4.37555 4.5326 4.35091 4.38303 4.34216 4.3043C 4.15115 3.29206 3.30513 2.95681 2.14594 3.06305C 1.92678 3.08313 1.70076 3.11855 1.47107 3.16645C 2.13357 2.54389 3.05936 2.17821 4.34485 2.17821Z"/>
<path id="path3_fill" d="M 0.434387 4.34844C 0.67431 4.34844 0.868774 4.15378 0.868774 3.91361L 0.868774 0.434829C 0.868774 0.194662 0.67431 -6.71817e-07 0.434387 -6.71817e-07C 0.194463 -6.71817e-07 2.05069e-07 0.194662 2.05069e-07 0.434829L 2.05069e-07 3.91361C 2.05069e-07 4.15373 0.194514 4.34844 0.434387 4.34844Z"/>
<path id="path4_fill" d="M 0.434387 4.34844C 0.674311 4.34844 0.868775 4.15378 0.868775 3.91361L 0.868775 0.434829C 0.868775 0.194662 0.674311 -6.71817e-07 0.434387 -6.71817e-07C 0.194464 -6.71817e-07 -1.9264e-07 0.194662 -1.9264e-07 0.434829L -1.9264e-07 3.91361C -1.9264e-07 4.15373 0.194464 4.34844 0.434387 4.34844Z"/>
<path id="path5_fill" d="M 0.434387 2.60903L 2.17199 2.60903C 2.41191 2.60903 2.60637 2.41436 2.60637 2.1742L 2.60637 0.43483C 2.60637 0.194662 2.41191 -6.22052e-07 2.17199 -6.22052e-07L 0.434387 -6.22052e-07C 0.194463 -6.22052e-07 -3.72852e-08 0.194662 -3.72852e-08 0.43483L -3.72852e-08 2.1742C -3.72852e-08 2.41436 0.194463 2.60903 0.434387 2.60903ZM 0.868775 0.869658L 1.7376 0.869658L 1.7376 1.73937L 0.868775 1.73937L 0.868775 0.869658Z"/>
<path id="path6_fill" d="M 0.434387 2.60903L 2.17199 2.60903C 2.41191 2.60903 2.60637 2.41436 2.60637 2.1742L 2.60637 0.43483C 2.60637 0.194662 2.41191 -6.22052e-07 2.17199 -6.22052e-07L 0.434387 -6.22052e-07C 0.194464 -6.22052e-07 5.07126e-07 0.194662 5.07126e-07 0.43483L 5.07126e-07 2.1742C -5.03996e-05 2.41436 0.194464 2.60903 0.434387 2.60903ZM 0.868774 0.869658L 1.7376 0.869658L 1.7376 1.73937L 0.868774 1.73937L 0.868774 0.869658Z"/>
</defs>
</svg>

<svg width="43" height="43" xmlns="http://www.w3.org/2000/svg" xmlns:xlink="http://www.w3.org/1999/xlink"><use xlink:href="#path0_fill" fill="#FFF"/><use xlink:href="#path1_fill" transform="translate(8 13.22)" fill="#8064FF"/><use xlink:href="#path2_fill" transform="translate(12.34 8)" fill="#8064FF"/><use xlink:href="#path3_fill" transform="translate(17.12 27.14)" fill="#8064FF"/><use xlink:href="#path4_fill" transform="translate(19.29 27.14)" fill="#8064FF"/><use xlink:href="#path5_fill" transform="translate(23.2 25.83)" fill="#8064FF"/><use xlink:href="#path6_fill" transform="translate(29.29 25.83)" fill="#8064FF"/><defs><path id="path0_fill" d="M43 21.5C43 33.374 33.374 43 21.5 43S0 33.374 0 21.5 9.626 0 21.5 0 43 9.626 43 21.5z"/><path id="path1_fill" d="M25.459 9.167l-5.476 2.35v-1.95a.434.434 0 0 0-.606-.4l-6 2.574h-1.214V8.426c0-.571-.462-1.034-1.032-1.034H9.72c-.57 0-1.033.463-1.033 1.034v3.315H6.92L6.08.403A.435.435 0 0 0 5.648 0H3.041a.435.435 0 0 0-.433.403l-.84 11.338h-.465a.435.435 0 0 0-.431.387l-.87 7.827a.435.435 0 0 0 .432.483H25.63c.24 0 .434-.195.434-.435V9.567a.434.434 0 0 0-.605-.4zM9.557 8.426c0-.09.073-.164.164-.164h1.41c.09 0 .163.073.163.164v3.315H9.557V8.426zm-.434 4.184h3.909v6.958h-4.39L7.87 12.61h1.253zM3.444.87h1.8l.804 10.87H2.64L3.444.87zM1.692 12.61h5.304l.344 3.095.428 3.863H6.082v-3.044a.435.435 0 0 0-.435-.435H3.041a.435.435 0 0 0-.434.435v3.044H.92l.772-6.958zm1.783 6.958v-2.609h1.738v2.609H3.475zm10.426-7.106l5.213-2.236v9.342H17.81V16.96a.435.435 0 0 0-.435-.435H15.64a.435.435 0 0 0-.435.435v2.61h-1.303v-7.107zm2.172 7.106v-2.174h.869v2.174h-.869zm6.95 0h-.868v-2.174h.868v2.174zm2.172 0h-1.303v-2.609a.435.435 0 0 0-.434-.435H21.72a.435.435 0 0 0-.434.435v2.609h-1.303v-7.106l5.212-2.236v9.342z"/><path id="path2_fill" d="M.593 4.323a7.796 7.796 0 0 1 .64-.205c.344-.094.682-.16.992-.189.77-.07 1.18.092 1.259.505.007.078.037.262.092.494.091.386.22.772.397 1.136.526 1.087 1.361 1.767 2.544 1.767.458.013.918-.003 1.365-.067.596-.086 1.07-.24 1.36-.504.649.65 1.28 1.059 1.885 1.275.42.15.774.192 1.042.168.875-.01 1.683-.374 2.428-.966a6.3 6.3 0 0 0 .648-.595c.73.572 1.489.744 2.118.693l.364-.008c3.25-.074 4.913-3.959 2.663-6.293a2.457 2.457 0 0 0-.116-.114.434.434 0 0 0-.725.323c0 1.139-.267 1.762-.675 2.033a.862.862 0 0 1-.552.148l-.076-.006c-.814 0-1.648-.747-2.35-1.845-.41-.645-.903-1.174-1.48-1.56-.603-.404-1.078-.54-1.409-.509-1.062.006-1.931.374-2.609.98a4.228 4.228 0 0 0-.256.25C9.94.954 9.64.747 9.272.613A2.94 2.94 0 0 0 8.253.439C7.25.439 6.417.615 5.75.91a3.441 3.441 0 0 0-.695.398h-.71c-1.505 0-2.644.45-3.448 1.204-.492.463-.762.932-.873 1.268a.435.435 0 0 0 .57.542zm3.752-2.145h.869a.434.434 0 0 0 .304-.125c.075-.073.265-.206.583-.347.557-.247 1.27-.397 2.153-.397a2.13 2.13 0 0 1 .721.121c.386.14.583.364.583.748 0 .462.624.605.825.19a2.952 2.952 0 0 1 .595-.735c.53-.476 1.205-.76 2.055-.76l.08-.007c-.005.002.055.008.154.036.18.052.403.158.667.334.47.314.88.756 1.23 1.305.843 1.32 1.856 2.231 3.051 2.246.366.035.76-.034 1.14-.286.464-.309.79-.828.95-1.576.808 1.755-.439 3.984-2.598 4.033-.107.002-.216.004-.33.004l-.064.004a1.905 1.905 0 0 1-.591-.05 2.439 2.439 0 0 1-1-.506 2.921 2.921 0 0 1-.21-.19.434.434 0 0 0-.652.042 5.46 5.46 0 0 1-.804.794c-.613.488-1.257.775-1.892.775l-.073.006c-.145.013-.373-.014-.671-.12-.481-.173-1.004-.511-1.555-1.063L9.43 6.22l-.868-.87a.434.434 0 1 0-.615.615l.67.67c-.125.1-.414.205-.859.269a7.134 7.134 0 0 1-1.22.059c-.822 0-1.39-.462-1.784-1.277a4.663 4.663 0 0 1-.332-.957 3.91 3.91 0 0 1-.08-.424c-.19-1.012-1.037-1.347-2.196-1.241-.22.02-.445.056-.675.103.663-.622 1.588-.988 2.874-.988z"/><path id="path3_fill" d="M.434 4.348c.24 0 .435-.194.435-.434V.434a.435.435 0 1 0-.869 0v3.48c0 .24.195.434.434.434z"/><path id="path4_fill" d="M.434 4.348c.24 0 .435-.194.435-.434V.434a.435.435 0 1 0-.869 0v3.48c0 .24.194.434.434.434z"/><path id="path5_fill" d="M.434 2.609h1.738c.24 0 .434-.195.434-.435V.434A.435.435 0 0 0 2.172 0H.434A.435.435 0 0 0 0 .435v1.74c0 .24.194.434.434.434zM.87.869h.869v.87h-.87V.87z"/><path id="path6_fill" d="M.434 2.609h1.738c.24 0 .434-.195.434-.435V.434A.435.435 0 0 0 2.172 0H.434A.435.435 0 0 0 0 .435v1.74c0 .24.194.434.434.434zM.87.869h.869v.87h-.87V.87z"/></defs></svg>
